medi/img/vk.svg

<svg width="24" height="14" viewBox="0 0 24 14" fill="none" xmlns="http://www.w3.org/2000/svg">
<path fill-rule="evenodd" clip-rule="evenodd" d="M21.3624 9.75765C21.3624 9.75765 23.3028 11.6741 23.7828 12.5609C23.7922 12.5736 23.7994 12.5878 23.8044 12.6029C24 12.9305 24.048 13.1873 23.952 13.3769C23.79 13.6901 23.2416 13.8473 23.0556 13.8605H19.626C19.3872 13.8605 18.8904 13.7981 18.2856 13.3805C17.8236 13.0577 17.364 12.5261 16.9188 12.0065C16.254 11.2349 15.6792 10.5653 15.0972 10.5653C15.0237 10.5651 14.9507 10.5773 14.8812 10.6013C14.4408 10.7405 13.8816 11.3681 13.8816 13.0397C13.8816 13.5629 13.4688 13.8605 13.1796 13.8605H11.6088C11.0736 13.8605 8.28722 13.6733 5.81642 11.0681C2.78882 7.87845 0.0696165 1.48005 0.0432165 1.42365C-0.125984 1.00965 0.229217 0.784049 0.613217 0.784049H4.07642C4.54082 0.784049 4.69202 1.06485 4.79762 1.31685C4.92002 1.60605 5.37362 2.76285 6.11762 4.06245C7.32242 6.17685 8.06282 7.03725 8.65442 7.03725C8.76556 7.03758 8.87483 7.0086 8.97122 6.95325C9.74402 6.52845 9.60002 3.76845 9.56402 3.19965C9.56402 3.08925 9.56282 1.96725 9.16682 1.42485C8.88362 1.03605 8.40122 0.884848 8.10962 0.829648C8.18762 0.716848 8.35322 0.544048 8.56562 0.442048C9.09482 0.178048 10.0512 0.139648 11.0004 0.139648H11.5272C12.5568 0.154048 12.8232 0.220048 13.1976 0.314848C13.9512 0.494848 13.9656 0.983249 13.8996 2.64645C13.8804 3.12165 13.86 3.65685 13.86 4.28685C13.86 4.42125 13.854 4.57125 13.854 4.72365C13.8312 5.57685 13.8012 6.53805 14.4036 6.93285C14.4817 6.98152 14.572 7.0073 14.664 7.00725C14.8728 7.00725 15.498 7.00725 17.1936 4.09725C17.9376 2.81205 18.5136 1.29645 18.5532 1.18245C18.5868 1.11885 18.6876 0.940048 18.81 0.868048C18.8971 0.821723 18.9946 0.798581 19.0932 0.800849H23.1672C23.6112 0.800849 23.9124 0.868049 23.9712 1.03605C24.0696 1.30845 23.952 2.14005 22.092 4.65525C21.7788 5.07405 21.504 5.43645 21.2628 5.75325C19.5768 7.96605 19.5768 8.07765 21.3624 9.75765Z" fill="#4FBFA5"/>
</svg>

<svg xmlns="http://www.w3.org/2000/svg" width="24" height="14" fill="none"><path fill="#4FBFA5" fill-rule="evenodd" d="M21.362 9.758s1.94 1.916 2.42 2.803a.2.2 0 0 1 .022.042q.293.49.148.774c-.162.313-.71.47-.896.483h-3.43c-.239 0-.736-.062-1.34-.48-.462-.322-.922-.854-1.367-1.373-.665-.772-1.24-1.442-1.822-1.442a.7.7 0 0 0-.216.036c-.44.14-1 .767-1 2.439 0 .523-.412.82-.701.82h-1.571c-.535 0-3.322-.187-5.793-2.792C2.79 7.878.07 1.48.043 1.424c-.169-.414.186-.64.57-.64h3.463c.465 0 .616.28.722.533.122.29.576 1.446 1.32 2.745 1.204 2.115 1.945 2.975 2.536 2.975q.17 0 .317-.084c.773-.425.629-3.185.593-3.753 0-.11-.001-1.233-.397-1.775C8.884 1.036 8.4.885 8.11.83c.078-.113.243-.286.456-.388C9.095.178 10.05.14 11 .14h.527c1.03.014 1.296.08 1.67.175.754.18.769.668.703 2.331-.02.476-.04 1.01-.04 1.64 0 .135-.006.285-.006.438-.023.853-.053 1.814.55 2.209a.5.5 0 0 0 .26.074c.209 0 .834 0 2.53-2.91.744-1.285 1.32-2.8 1.36-2.915.033-.063.134-.242.256-.314a.6.6 0 0 1 .283-.067h4.074c.444 0 .745.067.804.235.099.272-.019 1.104-1.879 3.62-.313.418-.588.78-.83 1.097-1.685 2.213-1.685 2.325.1 4.005" clip-rule="evenodd"/></svg>
